X: 2066
T: Âteş-i Sûzân-ı Firkat
C: Hacı Fâik Bey
O: Turkey
F: http://compmusic.upf.edu/node/140
N: hicaz-humayun--sarki--curcuna--ates-i_suzan-i--haci_faik_bey
N: makam= hicaz-humayun
N: form= sarki
N: usul= curcuna = 10/8
M: 10/8
L: 1/16
K: C _7/8B ^c  
Q: 1/4=198
%%MIDI tuningsystem comma53
G6A4A4A6  | B6c4d4c2 B2A2  | A18z2  | d6d4d4{e}d3cB2  | \
w:  Â teş_ i  sû  |  zân_ ı  fir  |  kat   |  yak dı  cism_ *  ü   | 
c2d2 e2e2 d2d2 c2d6  | 
w:  câ *  *  nı *  mı    | 
z4 f2e2 d2c2 B2A6  | G6A4A4A6  | B6c4d4c2 B2A2  | \
w:  SAZ  |  Â teş_ i  sû  |  zân_ ı  fir  | 
A18z2  | d6d4d4{e}d3cB2  | 
w:  kat   |  yak dı  cism_ *  ü   | 
c2d2 e2e2 d2d2 c2d6  | z4 f2e2 d2e2 c2d6  | \
w:  câ *  *  nı *  mı    |  SAZ  | 
d6d4d4d2 c2B2  | 
w:  Bir  ha râb_ â  | 
c4 B2B2 A2A8-A2  | d2c2 B2A2 G2c2 d2e4d2  | \
w:  bâ *  de  *  dön  |  dür *  *  *  *  dü   | 
d4 c2B2 A2A2 G2A4B2  | 
w:  dîl_ i  *  *  vi  | 
c4 B2B2 A2B8-B2  | A2B2 d2c2 B2B2 A2B6  | \
w:  râ *  nı *  mı    |  SAZ  | 
d6d4d4d2 c2B2  | c4 B2B2 A2A8-A2  | 
w:  Bir  ha râb_ â  |  bâ *  de  *  dön  | 
d2c2 B2A2 G2c2 d2e4d2  | d4 c2B2 A2A2 G2A4B2  | \
w:  dür *  *  *  *  dü   |  dîl_ i  *  *  vi  | 
c4 B2B2 A2A8-A2  | 
w:  râ *  nı *  mı    | 
z4 f2e2 d2c2 d2e6  | d6e4e4e4d2  | d4 =c2c2 _2/4B2B2 A2A6  | \
w:  SAZ  |  Ney le  tes kîn_ ey  |  *  le *  yim  *  bu   | 
g4 ^2/4f2f2 e2e2 d2a4g2  | 
w:  dî *  de_ *  i  *  gir  | 
g4 ^2/4f2f2 e2e2 d2e6  | z4 f2e2 d2c2 d2e6  | \
w:  yâ *  nı *  mı    |  SAZ  | 
e6^3/4f4g4a6  | e4 ^3/4f2g4=f2 e2d6  | 
w:  Çün ki  al dır  |  dım_ *  e lim  | 
f8-f2f2 e2e4d2  | e4 d2d4d2 =c2c4_1/4B2  | \
w:  den   |  sev *  gi li  *  câ  | 
=c4 d2d2 c2c2 _1/4B^AB6  | 
w:  nâ *  nı *  mı    | 
d2e2 f2e2 d2=c2 _1/4B^AB6  | d6d4d4d2 c2B2  | \
w:  SAZ  |  Çün ki  al dır  | 
c4 B2B2 A2A8-A2  | 
w:  dım_ *  e *  lim  | 
d2c2 B2A2 G2c2 d2e4d2  | d4 c2B2 A2A2 G2A4B2  | \
w:  den   |  sev *  gi *  li  *  câ  | 
c4 B2B2 A2A8-A2  | 
w:  nâ *  nı *  mı    | 
z4 _3/4d2=c2 _2/4B2A2 B2c6  | =c6c4c4c6  | \
w:  SAZ  |  Ağ la  çeş mim_  | 
_3/4d6e4f2 e2f4z2  | e2f2 g2a4g2 f2e4_3/4d2  | 
w:  ağ la  dur *  ma   |  git *  *  di  el *  den   | 
=c6_3/4d4d2 c2c6  | =c8-=c2c2 _3/4BAB6  | \
w:  naz lı  yâr    |   | 
A2B2 d2c2 B2B2 A2B6  | d6d4d4d2 c2B2  | 
w:  SAZ  |  Bir  ha râb_ â  | 
c4 B2B2 A2A8-A2  | d2c2 B2A2 G2c2 d2e4d2  | \
w:  bâ *  de  *  dön  |  dür *  *  *  *  dü   | 
d4 c2B2 A2A2 G2A4B2  | 
w:  dîl_ i  *  *  vi  | 
c4 B2B2 A2B8-B2  | A2B2 d2c2 B2B2 A2B6  | \
w:  râ *  nı *  mı    |  SAZ  | 
d6d4d4d2 c2B2  | c4 B2B2 A2A8-A2  | 
w:  Bir  ha râb_ â  |  bâ *  de  *  dön  | 
d2c2 B2A2 G2c2 d2e4d2  | d4 c2B2 A2A2 G2A4B2  | \
w:  dür *  *  *  *  dü   |  dîl_ i  *  *  vi  | 
c4 B2B2 A2A8-A2  | 
w:  râ *  nı *  mı    | 
|


